icons/project-symlink-24.svg

<svg width="24" height="24" viewBox="0 0 24 24" fill="none" xmlns="http://www.w3.org/2000/svg">
<path fill-rule="evenodd" clip-rule="evenodd" d="M2 3.75C2 2.7835 2.7835 2 3.75 2H20.25C21.2165 2 22 2.7835 22 3.75V20.25C22 21.2165 21.2165 22 20.25 22H9.75C9.33579 22 9 21.6642 9 21.25C9 20.8358 9.33579 20.5 9.75 20.5H20.25C20.3881 20.5 20.5 20.3881 20.5 20.25V9H3.5V12C3.5 12.4142 3.16421 12.75 2.75 12.75C2.33579 12.75 2 12.4142 2 12V3.75ZM3.5 7.5H7.5L7.5 3.5H3.75C3.61193 3.5 3.5 3.61193 3.5 3.75V7.5ZM9 7.5H20.5V3.75C20.5 3.61193 20.3881 3.5 20.25 3.5H9L9 7.5Z" fill="black"/>
<path d="M11.3083 14.5L9.20385 12.264C8.91996 11.9624 8.93435 11.4877 9.23598 11.2039C9.53761 10.92 10.0123 10.9343 10.2962 11.236L13.5903 14.736C13.8621 15.0248 13.8621 15.4752 13.5903 15.764L10.2962 19.264C10.0123 19.5657 9.53761 19.58 9.23598 19.2962C8.93435 19.0123 8.91996 18.5376 9.20385 18.236L11.3083 16H6.09043C4.65968 16 3.5 17.1596 3.5 18.5901V21.25C3.5 21.6642 3.16421 22 2.75 22C2.33579 22 2 21.6642 2 21.25V18.5901C2 16.331 3.83144 14.5 6.09043 14.5H11.3083Z" fill="black"/>
</svg>

<svg xmlns="http://www.w3.org/2000/svg" width="24" height="24" viewBox="0 0 24 24"><path fill-rule="evenodd" d="M2 3.75C2 2.784 2.784 2 3.75 2h16.5c.966 0 1.75.784 1.75 1.75v16.5A1.75 1.75 0 0120.25 22H9.75a.75.75 0 010-1.5h10.5a.25.25 0 00.25-.25V9h-17v3A.75.75 0 012 12V3.75zM3.5 7.5h4v-4H3.75a.25.25 0 00-.25.25V7.5zm5.5 0h11.5V3.75a.25.25 0 00-.25-.25H9v4z"/><path d="M11.308 14.5l-2.104-2.236a.75.75 0 111.092-1.028l3.294 3.5a.75.75 0 010 1.028l-3.294 3.5a.75.75 0 01-1.092-1.028L11.308 16H6.09a2.59 2.59 0 00-2.59 2.59v2.66a.75.75 0 01-1.5 0v-2.66a4.09 4.09 0 014.09-4.09h5.218z"/></svg>
